X: 81
T: Behold All These Things
C: Teton Sioux band 1911-1914
N: Derived from sioux081.krn
O: South Dakota, U.S.A.
N: Teton Sioux Music by Frances Densmore, 1918
Z: transcribed to **kern format by Craig Sapp
L: 1/8
M: 2/4
Q: 1/4=58
K: Gb clef=bass
%%linebreak <none>
F2 [I:setbarnb 1]| 
F EE2 | 
(3E B, B, E3/ E/ | 
(3E B, B,B,2 | 
(3E B, B,F2 | 
F> EE2 | 
(3E B, B,E2 | 
(3E E B,B,2 | 
(3E A, A,A,2 | 
(3E A, F,E,2 | 
(3E, E, E,E,2 ||  
[M:3/4](3B, A, A, (3A, G, G,G,2 ||  
[M:2/4](3E, E, E,E,2 | 
(3E, E, E,E,2 | 
(3E, E, E,E,2 | 
(3E B, B,F2 | 
F< E E/ E3/ | 
(3E B, B,E2 | 
E> B, B,/ B,3/ ||  
[M:3/4](3:2:8E B, (B,/ A,/) (E/ A,/) E, E,E,2 ||  
[M:2/4](3E, E, E,E,2 | 
(B,/ A,/) A,/ A,/ G,/ G,/ G, | 
E,< E,- E, E, | 
(3E, E, E, E,3/ E,/ | 
E,> F,E,2 |]  



